X:347
T:Spirit of the Dance
M:6/8
L:1/8
K:G
G2 D E2 D | G2 D E2 D | GAB c2 B | ABG FED | 
G2 D E2 D | G2 D E2 D | GAB cde | cAF G3 :| 
DGB c3 | B3 A3 | ABc d2 e | c2 d B3 | 
GAB c3 | B3 A3 | ABc B2 c | B2 A G3 :| 

